!!!COM: Palestrina, Giovanni Perluigi da
!!!OPR: Missa Gia fu chi m'ebbe cara
!!!OTL: Kyrie
**kern	**kern	**kern	**kern
*Ibass	*Itenor	*Icalto	*Icant
!Bassus	!Tenor	!Altus	!Cantus
*clefF4	*clefGv2	*clefG2	*clefG2
*k[]	*k[]	*k[]	*k[]
*D:dor	*D:dor	*D:dor	*D:dor
*M4/2	*M4/2	*M4/2	*M4/2
=1	=1	=1	=1
0r	0r	1d	1a
.	.	2.f	2.a
.	.	4e	4g
=2	=2	=2	=2
1r	1r	2f	2a
.	.	2d	2b
1A	1e	2.c	1cc
.	.	4d	.
=3	=3	=3	=3
2.c	2.e	4e	1g
.	.	4f	.
.	.	2.g	.
4B	4d	.	.
2c	2e	.	2r
.	.	4e	.
2A	2f	2a	2cc
=4	=4	=4	=4
1G	2g	2d	2b
.	2d	2g	2dd
1r	2.f	2.a	2.cc
.	4e	4g	4ee
=5	=5	=5	=5
0r	2f	2a	4dd
.	.	.	4cc
.	2d	2f	1ff
.	1c	1g	.
.	.	.	2ee
=6	=6	=6	=6
2r	1d	2f	2.ff
2D	.	2a	.
.	.	.	8ee
.	.	.	8dd
2.A	2c	2.cc	1ee
.	[2e	.	.
4G	.	4b	.
=7	=7	=7	=7
2A	4e]	2cc	1r
.	4c	.	.
2F	2d	2a	.
1E	2e	1g	2r
.	2B	.	2ee
=8	=8	=8	=8
0r	2.d	2r	2.ff
.	.	2.a	.
.	4c	.	4ee
.	2d	.	2ff
.	.	4f	.
.	2B-	2g	2dd
=9	=9	=9	=9
0r	0A	2a	2cc
.	.	2f	2.dd
.	.	1e	.
.	.	.	4cc
.	.	.	4cc
.	.	.	8dd
.	.	.	8ee
=10	=10	=10	=10
1D	1d	2f	1ff
.	.	2a	.
2.A	2r	2.cc	1ee
.	[2e	.	.
4G#	.	4b	.
=11	=11	=11	=11
2A	4e]	2cc	0r
.	4c	.	.
2F	2d	2a	.
[1E	2e	2g#	.
.	2c	[2a	.
=12	=12	=12	=12
1E]	1B	2a]	1ee
.	.	2g#	.
2.D	2d	1a	2.ff
.	[2a	.	.
4C#	.	.	4ee
=13	=13	=13	=13
4D	4a]	2r	2ff
4E	4g	.	.
4F	2f	2a	2dd
4G	.	.	.
2A	2e	2a	2cc#
2B-	2d	2g	[2dd
=14	=14	=14	=14
1A	0e	1a	2dd]
.	.	.	4cc#
.	.	.	4b
1A	.	1a	1cc#
=15	=15	=15	=15
0D	0f#	0a	0dd
=16	=16	=16	=16
0r	1r	0r	1g
.	1d	.	2a
.	.	.	2b
=17	=17	=17	=17
1r	2e	0r	1cc
.	2f#	.	.
1G	1g	.	2b
.	.	.	2b
=18	=18	=18	=18
2A	1f	1r	2cc
2B	.	.	2dd
2.c	1e	1g	2.ee
4B	.	.	4dd
=19	=19	=19	=19
2A	2f	2a	2cc
2G	2g	2b	2b
[1F	4a	4cc	2a
.	4g	4b	.
.	4f	4a	2cc
.	4e	4g	.
=20	=20	=20	=20
2F]	2d	2f	2dd
2E	1c	2g	2ee
1D	.	2a	1ff
.	2B	4g	.
.	.	4f	.
=21	=21	=21	=21
2C	2.c	2a	1ee
1c	.	2g	.
.	4d	.	.
.	4e	1g	2r
.	4f	.	.
2B	[2g	.	2dd
=22	=22	=22	=22
2c	2g]	1a	2cc
2d	2f#	.	2a
1G	1g	2r	1b-
.	.	2g	.
=23	=23	=23	=23
2r	1d	2f	2a
2d	.	2d	2f
2c	1r	2e	2g
2A	.	[2f	2a
=24	=24	=24	=24
1B-	1r	2f]	4d
.	.	.	4e
.	.	2d	4f
.	.	.	4g
2A	2r	2c	4a
.	.	.	4b
2F	2a	2A	4cc
.	.	.	4dd
=25	=25	=25	=25
2G	2g	2B	1ee
2A	2e	2c#	.
4D	1f	1d	1dd
4E	.	.	.
4F	.	.	.
4G	.	.	.
=26	=26	=26	=26
4A	2.e	2r	0r
4B	.	.	.
4c	.	2a	.
4A	4c	.	.
2B	2d	2g	.
2c	[2e	2e	.
=27	=27	=27	=27
1d	4e]	1f	2r
.	4d	.	.
.	1d	.	2a
2G	.	1e	2g
2A	2c#	.	2e
=28	=28	=28	=28
1D	2r	4d	4f
.	.	4e	4g
.	2d	4f	4a
.	.	4g	4b
2r	2c	4a	4cc
.	.	4b	4dd
2A	2A	2cc	4ee
.	.	.	4cc
=29	=29	=29	=29
2G	2B	2b	2dd
2E	2G	2.cc	1ee
1F	1A	.	.
.	.	4b	.
.	.	[2a	2dd
=30	=30	=30	=30
1E	2B	2a]	1ee
.	2c#	2g	.
1D	1d	1f	1a
=31	=31	=31	=31
0A	0c#	0e	0a
=32	=32	=32	=32
1r	1e	0r	0r
1A	2f	.	.
.	2e	.	.
=33	=33	=33	=33
2B-	2d	0r	0r
2A	2f	.	.
2G	2e	.	.
2F	[2d	.	.
=34	=34	=34	=34
1E	2d]	1r	1ee
.	2c#	.	.
1D	2d	1a	2.ff
.	2d	.	.
.	.	.	4ee
=35	=35	=35	=35
0r	2G	2b-	2dd
.	2A	2a	2ff
.	2c	2g	2ee
.	2d	2f	[2dd
=36	=36	=36	=36
1r	1A	2e	2dd]
.	.	2e	2cc#
1D	1d	[1f	2dd
.	.	.	2a
=37	=37	=37	=37
1.A	0r	2f]	1.cc
.	.	2e	.
.	.	2f	.
2G	.	2g	2b
=38	=38	=38	=38
1F	2r	1a	2cc
.	2A	.	2dd
1C	[1c	1g	1ee
=39	=39	=39	=39
1G	2c]	1g	2dd
.	2B	.	2dd
2c	2c	2g	2ee
2B	2d	2g	2dd
=40	=40	=40	=40
1c	1e	1g	2cc
.	.	.	2cc
2G	1d	1g	2b
2B	.	.	2dd
=41	=41	=41	=41
4c	1g	2r	4ee
4d	.	.	4ff
4e	.	1g	4gg
4d	.	.	4ff
4c	2r	.	4ee
4B	.	.	4dd
4A	2e	[2a	4cc
4G	.	.	4b
=42	=42	=42	=42
1.F	4f	4a]	2.a
.	4g	4b	.
.	4a	4cc	.
.	4g	4b	4b
.	4f	4a	2cc
.	4e	4g	.
2F	4d	4f	[2dd
.	4c	4e	.
=43	=43	=43	=43
0G	2.B	2d	4dd]
.	.	.	4cc
.	.	2.g	4b
.	4c	.	4a
.	2d	.	1b
.	.	4f	.
.	[2e	4e	.
.	.	4d	.
=44	=44	=44	=44
0A	2e]	2c#	[0a
.	2f	1d	.
.	2e	.	.
.	2e	2c#	.
=45	=45	=45	=45
1d	4f	4d	1a]
.	4g	4e	.
.	4a	4f	.
.	4g	4g	.
2r	4f	2a	2r
.	4e	.	.
2B	2d	2g	2dd
=46	=46	=46	=46
4c	1c	2r	4ee
4d	.	.	4ff
4e	.	1g	4gg
4d	.	.	4ff
4c	2r	.	4ee
4B	.	.	4dd
4A	2e	[2a	4cc
4G	.	.	4b
=47	=47	=47	=47
1.F	4f	4a]	2.a
.	4g	4b	.
.	4a	4cc	.
.	4g	4b	4b
.	4f	4a	2cc
.	4e	4g	.
2F	4d	4f	[2dd
.	4c	4e	.
=48	=48	=48	=48
0G	2.B	2d	4dd]
.	.	.	4cc
.	.	2.g	4b
.	4c	.	4a
.	2d	.	1b
.	.	4f	.
.	[2e	4e	.
.	.	4d	.
=49	=49	=49	=49
0A	2e]	2c#	[0a
.	1d	2d	.
.	.	1e	.
.	2c#	.	.
=50	=50	=50	=50
0D	0d	0f#	0a]
==	==	==	==
*-	*-	*-	*-
!!!CDT: 1525/^1526/-1594/2/2
!!!OCY: Italia
!!!AGN: Mass (Parody)
!!!AST: renaissance, vocal
!!!ASW: Madrigal 1555 (Palestrina)
!!!PWK: Masses, Book 10
!!!RNB: Cadence finals: A
!!!YOR: Le Opere Complete, v. 27, p. 30
!!!YOO: Rome, Italy: Fratelli Scalera
!!!END: 1992//
!!!EED: John Miller
!!!YEC: Copyright 2000, John Miller
!!!YEN: United States of America
!!!YEM: Rights to all derivative electronic formats reserved.
!!!YEM: Refer to licensing agreement for further details.
!!!YEM: This file must be accompanied by the licensing agreement.
!!!YEM: A copy of the licensing agreement may be found at http://www.music-cog.ohio-state.edu/HumdrumDatabases/Palestrina/license.txt
!!!EMD: converted to Humdrum by Bret Aarden
